assets/img/imagenesMiTrayectoria/corazon.svg

<svg width="55" height="52" viewBox="0 0 55 52" fill="none" xmlns="http://www.w3.org/2000/svg">
<path d="M25.8219 49.359L26.1028 49.4451C27.1356 49.7595 28.1111 50.0561 28.7541 51.3559C28.7703 51.3887 28.7931 51.4178 28.8212 51.4412C28.8493 51.4644 28.8818 51.4814 28.9167 51.4911C28.9387 51.4969 28.9613 51.5 28.9841 51.5C29.0339 51.5 29.0825 51.4852 29.1244 51.4577C29.5985 51.1441 30.045 50.8599 30.4689 50.59C31.3572 50.0243 32.1244 49.5362 32.8581 48.9675C35.4896 46.9719 37.8907 44.6812 40.0163 42.1382C42.8099 38.739 45.6984 35.224 48.4176 31.5445C50.1194 29.2411 51.5705 26.6696 52.7967 24.441C54.0233 22.1861 54.7534 19.6876 54.9371 17.118C55.2698 12.8951 54.2814 9.08881 51.9994 5.80494C49.4597 2.1501 46.0818 0.370138 41.9672 0.507369C37.3255 0.664968 33.2432 2.46778 29.8335 5.86597C29.6681 6.03856 29.515 6.22284 29.3755 6.41744C29.1104 6.76879 28.8588 7.10232 28.4802 7.23446C24.503 3.2983 21.462 1.75855 16.913 1.36392C12.2444 0.958591 8.46489 2.48412 5.67883 5.8958C4.29618 7.58217 3.08431 9.40584 2.06162 11.3392C-0.118315 15.4864 -0.572563 19.8977 0.713599 24.4512C1.86064 28.5155 3.77324 32.3147 6.34532 35.638C11.4877 42.3035 18.0408 46.9205 25.8219 49.359ZM6.56456 12.1246C7.16196 10.9808 7.8275 9.87507 8.55735 8.81353C10.2925 6.24026 12.7381 4.94153 15.8393 4.94153C16.2235 4.94153 16.6178 4.96144 17.022 5.00133C21.1644 5.41048 24.4874 7.26475 26.8986 10.5125C27.1883 10.9025 27.5037 11.2636 27.7819 11.5819C27.8951 11.7117 28.0016 11.8337 28.0956 11.9455C28.1347 11.9921 28.1888 12.0231 28.2482 12.0332C29.3664 12.2293 29.8185 11.6401 30.154 11.0744C32.0904 7.81113 35.1042 5.86324 39.6392 4.94463C40.7131 4.7563 41.8086 4.72837 42.8906 4.86184C44.6085 5.02657 46.082 5.8844 47.271 7.41074C48.6258 9.16155 49.4289 11.2871 49.5747 13.5094C49.8145 16.078 49.3502 18.6641 48.2334 20.9813C47.3918 22.7772 46.4338 24.5145 45.3659 26.1815C43.3829 29.1499 41.2651 32.101 39.2175 34.9549L38.5059 35.9478C36.9809 38.0753 35.4039 40.2198 33.8792 42.2936C33.3289 43.0418 32.7792 43.7904 32.2297 44.5394C31.9926 44.8628 31.7458 45.1795 31.4847 45.515C31.3985 45.6255 31.3111 45.7381 31.2221 45.8529C30.4907 45.5474 29.7786 45.2487 29.0803 44.957C27.4321 44.268 25.8605 43.6109 24.2927 42.9441C19.9531 41.1282 16.0224 38.4345 12.7393 35.0269C9.37317 31.5078 7.04016 27.743 5.60742 23.5171C4.30096 19.6624 4.6139 15.9358 6.56456 12.1246Z" fill="#021E26"/>
</svg>

<svg xmlns="http://www.w3.org/2000/svg" width="55" height="52" fill="none"><path fill="#021E26" d="m25.822 49.359.28.086c1.034.315 2.01.611 2.652 1.91a.26.26 0 0 0 .163.136.256.256 0 0 0 .208-.033c.474-.314.92-.598 1.344-.868.888-.566 1.655-1.054 2.39-1.623a44 44 0 0 0 7.157-6.829c2.794-3.399 5.682-6.914 8.402-10.593 1.701-2.304 3.153-4.875 4.379-7.104a18 18 0 0 0 2.14-7.323c.333-4.223-.656-8.03-2.938-11.313C49.46 2.15 46.082.37 41.967.507c-4.642.158-8.724 1.96-12.133 5.359a5 5 0 0 0-.459.551c-.265.352-.516.685-.895.817-3.977-3.936-7.018-5.475-11.567-5.87-4.669-.405-8.448 1.12-11.234 4.532a32.7 32.7 0 0 0-3.617 5.443C-.118 15.486-.573 19.898.714 24.451a32.9 32.9 0 0 0 5.631 11.187c5.143 6.666 11.696 11.282 19.477 13.721M6.565 12.125a32 32 0 0 1 1.992-3.311c1.736-2.574 4.181-3.872 7.282-3.872q.577 0 1.183.06c4.142.408 7.465 2.263 9.877 5.51.29.39.605.752.883 1.07q.171.196.314.363c.039.047.093.078.152.088 1.118.196 1.57-.393 1.906-.959 1.936-3.263 4.95-5.21 9.485-6.13a11 11 0 0 1 3.252-.082c1.718.165 3.191 1.022 4.38 2.549a11.16 11.16 0 0 1 2.304 6.098 14.2 14.2 0 0 1-1.342 7.472 45 45 0 0 1-2.867 5.2c-1.983 2.969-4.1 5.92-6.148 8.774l-.712.993c-1.525 2.127-3.102 4.272-4.627 6.346l-1.65 2.245c-.236.324-.483.64-.744.976q-.13.165-.263.338l-2.142-.896a840 840 0 0 1-4.787-2.013 34.6 34.6 0 0 1-11.554-7.917c-3.366-3.52-5.699-7.284-7.132-11.51-1.306-3.855-.993-7.581.958-11.392"/></svg>
